src/icons/svg/Plus.svg

<!-- Generated by IcoMoon.io -->
<svg version="1.1" xmlns="http://www.w3.org/2000/svg" width="24" height="24" viewBox="0 0 24 24">
<title>plus</title>
<path fill="#444" d="M22.5 12.002h-9v-9c0-0.414-0.336-0.75-0.75-0.75-0.413 0-0.75 0.336-0.75 0.75v9h-9c-0.414 0-0.75 0.336-0.75 0.75s0.336 0.75 0.75 0.75h9v9c0 0.414 0.336 0.75 0.75 0.75s0.75-0.336 0.75-0.75v-9h9c0.413 0 0.75-0.336 0.75-0.75s-0.337-0.75-0.75-0.75z"></path>
</svg>

<svg width="24" height="24" viewBox="0 0 24 24" fill="none" xmlns="http://www.w3.org/2000/svg">
<path d="M22.5 12.002H13.5V3.002C13.5 2.588 13.164 2.252 12.75 2.252C12.337 2.252 12 2.588 12 3.002V12.002H3C2.586 12.002 2.25 12.338 2.25 12.752C2.25 13.166 2.586 13.502 3 13.502H12V22.502C12 22.916 12.336 23.252 12.75 23.252C13.164 23.252 13.5 22.916 13.5 22.502V13.502H22.5C22.913 13.502 23.25 13.166 23.25 12.752C23.25 12.338 22.913 12.002 22.5 12.002V12.002Z" fill="#1C2125"/>
</svg>
